X: 1
T: Vaccatu en starri dugh
B: A COLECTION of the most Celebrated Irish Tunes17b
M: 6/4
L: 1/8
K: G
D2 |\
G3ABG A2B2d2 | G2A2B2 d4g2 | G3ABG A2B2d2 | TA4G2 G4 :|
|: B2 |\
d2e2f2 Tg4a2 | Tg4a2 g2f2e2 | d2B2d2 Te4g2 | Te4g2 e2d2B2 |
d2e2f2 g2f2e2 | d2B2d2 Te4g2 | G2A2B2 A2B2d2 | TA4G2 G4B2 |
d2e2f2 g2G2g2 | g2G2g2 (gagf)e2 | BABdBd e2E2e2 | e2E2e2 (efed)B2 |
d2e2f2 g2(agfe) | f2(gfed) (edef)g2 | G2A2B2 g2a2b2 | TA4G2 HG4 :|
